!!!COM: Music21
!!!OTL: De xolda
!!!OMV: pezas_pasacorredoiras_de-xolda_de-xolda-partitura-1.musicxml
**kern
*part1
*staff1
*I"Bagpipes
*I'Bag
*clefG^2
*k[]
*M2/4
=1
!LO:TX:a:t=Andante
*MM100
!LO:TX:a:t=[quarter]=100
8ggL
16ggL
16ffJJ
16eeLL
16dd
16ee
16ffJJ
=
8ggL
8ggJ
4gg
=
8ffL
16ffL
16eeJJ
16ddLL
16ee
16ff
16ggJJ
=
8ggL
8eeJ
4ee
=
8ggL
16ggL
16ffJJ
16eeLL
16dd
16ee
16ffJJ
=
8ggL
8ggJ
4gg
=
8ffL
16ffL
16eeJJ
16ddLL
16ee
16ff
16ggJJ
!!linebreak:original
=
8eeL
8eeJ
4ee
=||
*M2/4
!LO:TX:a:t=Andante
*MM100
!LO:TX:a:t=[quarter]=100
8ggL
16ggL
16ffJJ
16eeLL
16dd
16ee
16ffJJ
=
8ggL
8ggJ
4gg
=
8ffL
16ffL
16eeJJ
16ddLL
16ee
16ff
16ggJJ
=
8ggL
8eeJ
4ee
=
8ggL
16ggL
16ffJJ
16eeLL
16dd
16ee
16ffJJ
=
8ggL
8ggJ
4gg
!!linebreak:original
=
8ffL
16ffL
16eeJJ
16ddLL
16ee
16ff
16ggJJ
=
8eeL
8eeJ
4ee
!!linebreak:original
=||
16bLL
16cc
16dd
16eeJJ
16ddLL
16cc
16b
16ccJJ
=
8ddL
8ddJ
4dd
=
16bLL
16cc
16dd
16ccJJ
16bbLL
16aa
16gg
16ffJJ
=
8ggL
8eeJ
4ee
=
16bLL
16cc
16dd
16eeJJ
16ddLL
16cc
16b
16ccJJ
=
8ddL
8ddJ
4dd
=
16bLL
16cc
16dd
16ccJJ
16bbLL
16aa
16gg
16ffJJ
!!linebreak:original
=
8eeL
8eeJ
4ee
!!linebreak:original
=||
16bLL
16cc
16dd
16eeJJ
16ddLL
16cc
16b
16ccJJ
=
8ddL
8ddJ
4dd
=
16bLL
16cc
16dd
16ccJJ
16bbLL
16aa
16gg
16ffJJ
=
8ggL
8eeJ
4ee
=
16bLL
16cc
16dd
16eeJJ
16ddLL
16cc
16b
16ccJJ
=
8ddL
8ddJ
4dd
=
16bLL
16cc
16dd
16ccJJ
16bbLL
16aa
16gg
16ffJJ
!!pagebreak:original
=
8eeL
8eeJ
4ee
!!linebreak:original
=||
16ggLL
16ccc
16gg
16eeJJ
16ccLL
16dd
16ee
16ffJJ
=
8ggL
8ggJ
4gg
=
16ggLL
16ccc
16gg
16ffJJ
16ddLL
16ee
16ff
16ggJJ
=
8eeL
8ccJ
4cc
=
16ggLL
16ccc
16gg
16eeJJ
16ccLL
16dd
16ee
16ffJJ
=
8ggL
8ggJ
4gg
=
16ggLL
16ccc
16aa
16ffJJ
8ddL
16ddL
16eeJJ
!!linebreak:original
=
8ccL
8ccJ
4cc
!!linebreak:original
=||
16ggLL
16ccc
16gg
16eeJJ
16ccLL
16dd
16ee
16ffJJ
=
8ggL
8ggJ
4gg
=
16ggLL
16ccc
16gg
16ffJJ
16ddLL
16ee
16ff
16ggJJ
=
8eeL
8ccJ
4cc
=
16ggLL
16ccc
16gg
16eeJJ
16ccLL
16dd
16ee
16ffJJ
=
8ggL
8ggJ
4gg
=
16ggLL
16ccc
16aa
16ffJJ
8ddL
16ddL
16eeJJ
!!linebreak:original
=
8ccL
8ccJ
4cc
=||
*-
!!!system-decoration: s1,s2
